src/assets/daws/garage.svg

<svg fill="none" height="172" viewBox="0 0 172 172" width="172" xmlns="http://www.w3.org/2000/svg"><path d="m28.3798 13.7598c-8.0737 0-14.62 6.5463-14.62 14.62v115.2402c0 8.073 6.5463 14.62 14.62 14.62h115.2402c8.073 0 14.62-6.547 14.62-14.62v-115.2402c0-8.0737-6.547-14.62-14.62-14.62zm116.1002 6.88c.994.3405 2.784 1.1025 4.407 2.795 2.367 2.4596 2.876 5.3105 3.01 6.3425-12.311 12.3427-24.621 24.6843-36.933 37.027 3.44 13.072 19.263 2.4066 19.263 8.9426 0 15.48-20.64 9.2907-22.36 23.3947-1.032 7.5684-1.031 14.7904-8.943 22.7024-13.0717 13.072-32.712 14.725-50.256-1.787-.0344-.034-.0731-.072-.1075-.141-16.0304-17.441-14.2714-36.8045-1.337-49.7389 7.912-7.912 15.1347-7.9107 22.7027-8.9427 14.104-1.72 7.9079-22.36 23.3879-22.36 6.5359 0-4.1226 15.8227 8.9499 19.2627l.409.4098zm-57.9293 50.1554-5.0928 5.0928 15.0701 15.0971 5.126-5.1197zm-14.4117 14.0355-5.1264 5.1264 15.097 15.0639 5.0928-5.0865z" fill="#9ca3af"/></svg>

<svg width="172" height="172" viewBox="0 0 172 172" fill="none" xmlns="http://www.w3.org/2000/svg">
<path d="M28.3798 13.7598C20.3061 13.7598 13.7598 20.3061 13.7598 28.3798V143.62C13.7598 151.693 20.3061 158.24 28.3798 158.24H143.62C151.693 158.24 158.24 151.693 158.24 143.62V28.3798C158.24 20.3061 151.693 13.7598 143.62 13.7598H28.3798ZM144.48 20.6398C145.474 20.9803 147.264 21.7423 148.887 23.4348C151.254 25.8944 151.763 28.7453 151.897 29.7773C139.586 42.12 127.276 54.4616 114.964 66.8043C118.404 79.8763 134.227 69.2109 134.227 75.7469C134.227 91.2269 113.587 85.0376 111.867 99.1416C110.835 106.71 110.836 113.932 102.924 121.844C89.8523 134.916 70.212 136.569 52.668 120.057C52.6336 120.023 52.5949 119.985 52.5605 119.916C36.5301 102.475 38.2891 83.1115 51.2235 70.1771C59.1355 62.2651 66.3582 62.2664 73.9262 61.2344C88.0302 59.5144 81.8341 38.8744 97.3141 38.8744C103.85 38.8744 93.1915 54.6971 106.264 58.1371L106.673 58.5469L144.48 20.6398ZM86.5507 70.7952L81.4579 75.888L96.528 90.9851L101.654 85.8654L86.5507 70.7952ZM72.139 84.8307L67.0126 89.9571L82.1096 105.021L87.2024 99.9345L72.139 84.8307Z" fill="#9CA3AF"/>
</svg>
